static/img/in-field/inputs-readonly-dark..svg

<svg width="468" height="57" viewBox="0 0 468 57" fill="none" xmlns="http://www.w3.org/2000/svg">
<rect y="0.666626" width="468" height="56" rx="4" fill="#464B52"/>
<path d="M22.9717 37.6666H21.1348V23.5729H16.1934V21.9615H27.8916V23.5729H22.9717V37.6666ZM34.7803 25.6783C35.7829 25.6783 36.6423 25.9003 37.3584 26.3444C38.0745 26.7884 38.6224 27.4114 39.002 28.2135C39.3815 29.0084 39.5713 29.9394 39.5713 31.0065V32.1129H31.4395C31.4609 33.4951 31.8047 34.5478 32.4707 35.2711C33.1367 35.9944 34.0749 36.3561 35.2852 36.3561C36.0299 36.3561 36.6888 36.288 37.2617 36.152C37.8346 36.0159 38.429 35.8154 39.0449 35.5504V37.1188C38.4505 37.3837 37.8597 37.5771 37.2725 37.6989C36.6924 37.8206 36.0049 37.8815 35.21 37.8815C34.0785 37.8815 33.0902 37.6523 32.2451 37.194C31.4072 36.7285 30.7555 36.0481 30.29 35.153C29.8245 34.2578 29.5918 33.1621 29.5918 31.8658C29.5918 30.5983 29.8031 29.5026 30.2256 28.5787C30.6553 27.6477 31.2568 26.9316 32.0303 26.4303C32.8109 25.929 33.7275 25.6783 34.7803 25.6783ZM34.7588 27.1393C33.8063 27.1393 33.0472 27.4508 32.4814 28.0739C31.9157 28.6969 31.5791 29.567 31.4717 30.6842H37.7021C37.695 29.9824 37.584 29.3665 37.3691 28.8365C37.1615 28.2994 36.8428 27.8841 36.4131 27.5905C35.9834 27.2897 35.432 27.1393 34.7588 27.1393ZM45.6543 31.6403L41.583 25.8932H43.624L46.7285 30.4264L49.8223 25.8932H51.8418L47.7705 31.6403L52.0674 37.6666H50.0264L46.7285 32.8649L43.4092 37.6666H41.3896L45.6543 31.6403ZM58.4189 36.4205C58.7126 36.4205 59.0133 36.3955 59.3213 36.3453C59.6292 36.2952 59.8799 36.2343 60.0732 36.1627V37.5485C59.8656 37.6416 59.5755 37.7203 59.2031 37.7848C58.8379 37.8492 58.4798 37.8815 58.1289 37.8815C57.5059 37.8815 56.9401 37.774 56.4316 37.5592C55.9232 37.3372 55.515 36.9648 55.207 36.442C54.9062 35.9192 54.7559 35.1959 54.7559 34.2721V27.2897H53.0801V26.4196L54.7666 25.7213L55.4756 23.1647H56.5498V25.8932H59.998V27.2897H56.5498V34.2184C56.5498 34.956 56.7181 35.5074 57.0547 35.8727C57.3984 36.2379 57.8532 36.4205 58.4189 36.4205ZM68.9414 37.6666V21.9615H70.7676V37.6666H68.9414ZM80.6426 25.6783C82.0391 25.6783 83.0954 26.0221 83.8115 26.7096C84.5277 27.3899 84.8857 28.4856 84.8857 29.9967V37.6666H83.124V30.1149C83.124 29.1337 82.8984 28.3997 82.4473 27.9127C82.0033 27.4257 81.3193 27.1823 80.3955 27.1823C79.0921 27.1823 78.1755 27.5511 77.6455 28.2887C77.1156 29.0263 76.8506 30.097 76.8506 31.5006V37.6666H75.0674V25.8932H76.5068L76.7754 27.5905H76.8721C77.1227 27.1751 77.4414 26.8278 77.8281 26.5485C78.2148 26.262 78.6481 26.0472 79.1279 25.9039C79.6077 25.7535 80.1126 25.6783 80.6426 25.6783ZM94.3418 25.6783C95.8099 25.6783 96.9808 26.1832 97.8545 27.193C98.7282 28.2028 99.165 29.721 99.165 31.7477C99.165 33.0869 98.9645 34.2112 98.5635 35.1207C98.1624 36.0302 97.5967 36.7177 96.8662 37.1832C96.1429 37.6487 95.2871 37.8815 94.2988 37.8815C93.6758 37.8815 93.1279 37.7991 92.6553 37.6344C92.1826 37.4697 91.778 37.2477 91.4414 36.9684C91.1048 36.6891 90.8255 36.3847 90.6035 36.0553H90.4746C90.4961 36.3346 90.5212 36.6712 90.5498 37.0651C90.5856 37.4589 90.6035 37.8027 90.6035 38.0963V42.9303H88.8096V25.8932H90.2812L90.5176 27.6334H90.6035C90.8327 27.2753 91.112 26.9495 91.4414 26.6559C91.7708 26.3551 92.1719 26.1188 92.6445 25.9469C93.1243 25.7679 93.6901 25.6783 94.3418 25.6783ZM94.0303 27.1823C93.2139 27.1823 92.555 27.3398 92.0537 27.6549C91.5596 27.97 91.1979 28.4427 90.9688 29.0729C90.7396 29.6959 90.6178 30.4801 90.6035 31.4254V31.7692C90.6035 32.7646 90.7109 33.6061 90.9258 34.2936C91.1478 34.9811 91.5094 35.5039 92.0107 35.8619C92.5192 36.22 93.1995 36.399 94.0518 36.399C94.7822 36.399 95.391 36.2021 95.8779 35.8082C96.3649 35.4143 96.7266 34.8665 96.9629 34.1647C97.2064 33.4557 97.3281 32.6429 97.3281 31.7262C97.3281 30.3369 97.056 29.234 96.5117 28.4176C95.9746 27.594 95.1475 27.1823 94.0303 27.1823ZM112.252 25.8932V37.6666H110.791L110.533 36.0123H110.437C110.193 36.4205 109.878 36.7643 109.491 37.0436C109.104 37.3229 108.668 37.5306 108.181 37.6666C107.701 37.8099 107.189 37.8815 106.645 37.8815C105.714 37.8815 104.933 37.7311 104.303 37.4303C103.673 37.1295 103.196 36.664 102.874 36.0338C102.559 35.4036 102.401 34.5944 102.401 33.6061V25.8932H104.206V33.4772C104.206 34.4583 104.428 35.1923 104.872 35.6793C105.316 36.1591 105.993 36.399 106.902 36.399C107.776 36.399 108.471 36.2343 108.986 35.9049C109.509 35.5755 109.885 35.0921 110.114 34.4547C110.343 33.8102 110.458 33.0224 110.458 32.0914V25.8932H112.252ZM120.075 36.4205C120.369 36.4205 120.67 36.3955 120.978 36.3453C121.285 36.2952 121.536 36.2343 121.729 36.1627V37.5485C121.522 37.6416 121.232 37.7203 120.859 37.7848C120.494 37.8492 120.136 37.8815 119.785 37.8815C119.162 37.8815 118.596 37.774 118.088 37.5592C117.579 37.3372 117.171 36.9648 116.863 36.442C116.562 35.9192 116.412 35.1959 116.412 34.2721V27.2897H114.736V26.4196L116.423 25.7213L117.132 23.1647H118.206V25.8932H121.654V27.2897H118.206V34.2184C118.206 34.956 118.374 35.5074 118.711 35.8727C119.055 36.2379 119.509 36.4205 120.075 36.4205Z" fill="white"/>
</svg>

<svg width="468" height="57" fill="none" xmlns="http://www.w3.org/2000/svg"><rect y=".667" width="468" height="56" rx="4" fill="#464B52"/><path d="M22.972 37.667h-1.837V23.573h-4.942v-1.611h11.699v1.61h-4.92v14.095zM34.78 25.678c1.003 0 1.862.222 2.578.666.717.444 1.264 1.067 1.644 1.87.38.794.57 1.725.57 2.793v1.106h-8.133c.022 1.382.366 2.435 1.032 3.158.666.723 1.604 1.085 2.814 1.085.745 0 1.404-.068 1.977-.204a10.9 10.9 0 001.783-.602v1.569a8.688 8.688 0 01-1.773.58c-.58.122-1.267.183-2.062.183-1.132 0-2.12-.23-2.965-.688-.838-.466-1.49-1.146-1.955-2.041-.465-.895-.698-1.99-.698-3.287 0-1.268.211-2.363.634-3.287.43-.931 1.03-1.647 1.804-2.149.78-.501 1.697-.752 2.75-.752zm-.021 1.461c-.953 0-1.712.312-2.278.935-.565.623-.902 1.493-1.01 2.61h6.231c-.007-.702-.118-1.318-.333-1.848-.208-.537-.526-.952-.956-1.245-.43-.301-.981-.452-1.654-.452zm10.895 4.501l-4.071-5.747h2.041l3.104 4.533 3.094-4.533h2.02L47.77 31.64l4.297 6.027h-2.04l-3.299-4.802-3.319 4.802h-2.02l4.265-6.027zm12.765 4.78c.294 0 .594-.025.902-.075.308-.05.559-.11.752-.182v1.386c-.207.093-.498.171-.87.236a6.18 6.18 0 01-1.074.097 4.32 4.32 0 01-1.697-.323c-.509-.222-.917-.594-1.225-1.117-.3-.523-.451-1.246-.451-2.17V27.29H53.08v-.87l1.687-.699.709-2.556h1.074v2.728h3.448v1.397H56.55v6.928c0 .738.168 1.29.505 1.655.343.365.798.547 1.364.547zm10.522 1.247V21.96h1.827v15.706H68.94zm11.702-11.989c1.396 0 2.452.344 3.168 1.032.717.68 1.075 1.776 1.075 3.287v7.67h-1.762v-7.552c0-.981-.226-1.715-.677-2.202-.444-.487-1.128-.73-2.052-.73-1.303 0-2.22.368-2.75 1.106-.53.737-.794 1.808-.794 3.212v6.166h-1.784V25.893h1.44l.268 1.697h.097c.25-.415.57-.762.956-1.041.387-.287.82-.502 1.3-.645.48-.15.985-.226 1.515-.226zm13.699 0c1.468 0 2.639.505 3.513 1.515.873 1.01 1.31 2.528 1.31 4.555 0 1.339-.2 2.463-.602 3.373-.4.91-.966 1.597-1.697 2.062-.723.466-1.579.699-2.567.699-.623 0-1.171-.083-1.644-.248a3.878 3.878 0 01-1.214-.666 4.347 4.347 0 01-.838-.913h-.128l.075 1.01c.036.394.053.738.053 1.031v4.834H88.81V25.893h1.471l.237 1.74h.085c.23-.358.509-.683.838-.977.33-.3.73-.537 1.203-.71.48-.178 1.046-.268 1.698-.268zm-.312 1.504c-.816 0-1.475.158-1.976.473-.494.315-.856.788-1.085 1.418-.23.623-.351 1.407-.365 2.352v.344c0 .996.107 1.837.322 2.525.222.687.583 1.21 1.085 1.568.508.358 1.189.537 2.04.537.731 0 1.34-.197 1.827-.59.487-.395.849-.942 1.085-1.644.243-.71.365-1.522.365-2.439 0-1.39-.272-2.492-.816-3.308-.537-.824-1.365-1.236-2.482-1.236zm18.222-1.289v11.774h-1.461l-.258-1.655h-.096a3.427 3.427 0 01-.946 1.032 4.1 4.1 0 01-1.31.623c-.48.143-.992.215-1.536.215-.931 0-1.712-.15-2.342-.452a3.036 3.036 0 01-1.429-1.396c-.315-.63-.473-1.44-.473-2.428v-7.713h1.805v7.584c0 .981.222 1.715.666 2.202.444.48 1.121.72 2.03.72.874 0 1.569-.165 2.084-.494.523-.33.899-.813 1.128-1.45.229-.645.344-1.433.344-2.364v-6.198h1.794zm7.823 10.527c.294 0 .595-.025.903-.075.307-.05.558-.11.751-.182v1.386c-.207.093-.497.171-.87.236a6.174 6.174 0 01-1.074.097 4.317 4.317 0 01-1.697-.323c-.509-.222-.917-.594-1.225-1.117-.301-.523-.451-1.246-.451-2.17V27.29h-1.676v-.87l1.687-.699.709-2.556h1.074v2.728h3.448v1.397h-3.448v6.928c0 .738.168 1.29.505 1.655.344.365.798.547 1.364.547z" fill="#fff"/></svg>
